logos/aspb-brand-mark.svg

<?xml version="1.0" encoding="UTF-8"?>
<svg viewBox="0 0 77 30" xmlns="http://www.w3.org/2000/svg">
<path d="m46.891 14.827c0-8.1918 6.7375-14.827 15.056-14.827s15.056 6.6351 15.056 14.827c0 8.1918-6.7375 14.827-15.056 14.827s-15.056-6.635-15.056-14.827z" fill="#AAACAE"/>
<path d="m59.07 8.575h3.8265c1.4598 0 2.8073 0.35727 2.8073 2.1011 0 1.5397-1.0625 2.1777-2.4963 2.1777h-4.1375v-4.2788zm-4.0857 15.167h9.0006c3.3601 0 6.5561-1.5908 6.5561-5.2996 0-2.2798-1.1402-3.9981-3.4033-4.6361 1.6152-0.7656 2.5222-2.0245 2.5222-3.8194 0-3.4111-2.3927-4.534-5.9342-4.534h-8.7414v18.289zm4.0857-8.1493h4.4484c1.7449 0 2.9369 0.7401 2.9369 2.6115s-1.408 2.4074-3.0146 2.4074h-4.3707v-5.0189z" clip-rule="evenodd" fill="#fff" fill-rule="evenodd"/>
<path d="m41.665 1.5391v9.9526h10.072v6.499h-10.072v9.9101h-6.7116v-9.9101h-10.063v-6.499h10.063v-9.9526h6.7116z" fill="#328CA8"/>
<path d="M22.8384 1.51953H31.5885L8.7501 27.8472H0L22.8384 1.51953Z" clip-rule="evenodd" fill="#777A7E" fill-rule="evenodd"/>
</svg>

<svg viewBox="0 0 77 30" fill="none" xmlns="http://www.w3.org/2000/svg">
<path fill="#AAACAE" d="M46.8906 14.8269C46.8906 6.63509 53.6281 0 61.9463 0C70.2645 0 77.002 6.63509 77.002 14.8269C77.002 23.0187 70.2645 29.6537 61.9463 29.6537C53.6281 29.6537 46.8906 23.0187 46.8906 14.8269Z"/>
<path fill="white" fill-rule="evenodd" clip-rule="evenodd" d="M59.0701 8.57502H62.8966C64.3564 8.57502 65.7039 8.93229 65.7039 10.6761C65.7039 12.2158 64.6414 12.8538 63.2076 12.8538H59.0701V8.57502ZM54.9844 23.7422H63.985C67.3451 23.7422 70.5411 22.1514 70.5411 18.4426C70.5411 16.1628 69.4009 14.4445 67.1378 13.8065C68.753 13.0409 69.66 11.782 69.66 9.9871C69.66 6.57599 67.2673 5.45312 63.7258 5.45312H54.9844V23.7422ZM59.0701 15.5929H63.5185C65.2634 15.5929 66.4554 16.333 66.4554 18.2044C66.4554 20.0758 65.0474 20.6118 63.4408 20.6118H59.0701V15.5929Z"/>
<path fill="#328CA8" d="M41.6653 1.53906V11.4917H51.7369V17.9907H41.6653V27.9008H34.9537V17.9907H24.8906V11.4917H34.9537V1.53906H41.6653Z"/>
<path fill="#777A7E" fill-rule="evenodd" clip-rule="evenodd" d="M22.8384 1.51953H31.5885L8.7501 27.8472H0L22.8384 1.51953Z"/>
</svg>
